X:326
T:Jacob Hall's Jig. (p)1695.PLFD1.326
M:6/4
L:1/4
Q:3/4=100
S:Playford, Dancing Master,9th Ed,1695.
R:.Jig
O:England;London
H:1695.
Z:Chris Partington.
K:F
a2d(d>c/2d/4)e|^c3A2A|d2cc2B|A3F2A|
G2GGAE|F2GE2C|D2EE2D|^C3A,3:|
|:e|e2ff2e|de^cB2A|A2GG2F|F3f>ef|
g2e^c>de|f2ed>c=B|(^c=B/2c/4)d=B2A|A3-A2a|
b2ge>fg|a>bag>fe|f2f(g>f/2g/4)a|a3g>fg|
a2e^c>de|f2e^c>=BA|(f>e/2f/4)ge2d|d3-d2:|
